UI/POI/SVG/car-dealership_outline_24px.svg

<svg width="24" height="24" viewBox="0 0 24 24" fill="none" xmlns="http://www.w3.org/2000/svg">
<path d="M22.0001 11H19.4501L18.5901 9.82C18.4037 9.57258 18.164 9.37036 17.8887 9.22839C17.6134 9.08642 17.3097 9.00835 17.0001 9V11.05L19.2901 14.18L20.0001 15.18V20H18.0001V18H6.00005V20H4.00005V15.16L4.71005 14.16L7.00005 11.05V9C6.69043 9.00835 6.38668 9.08642 6.11139 9.22839C5.83611 9.37036 5.59638 9.57258 5.41005 9.82L4.55005 11H2.00005V13H3.10005L2.33005 14.06C2.11312 14.348 1.99714 14.6995 2.00005 15.06V20C2.00005 20.5304 2.21077 21.0391 2.58584 21.4142C2.96091 21.7893 3.46962 22 4.00005 22H7.00005C7.26527 22 7.51962 21.8946 7.70716 21.7071C7.8947 21.5196 8.00005 21.2652 8.00005 21V20H16.0001V21C16.0001 21.2652 16.1054 21.5196 16.2929 21.7071C16.4805 21.8946 16.7348 22 17.0001 22H20.0001C20.5305 22 21.0392 21.7893 21.4143 21.4142C21.7893 21.0391 22.0001 20.5304 22.0001 20V15.06C22.003 14.6995 21.887 14.348 21.6701 14.06L20.9001 13H22.0001V11ZM18.0001 16H6.00005L7.50005 14H16.5001L18.0001 16ZM15.0001 8.66C15.0175 9.23692 14.8136 9.79865 14.4301 10.23C14.1488 10.5131 13.8069 10.7286 13.4301 10.86V12H11.4301V11.11C10.5135 11.0419 9.6516 10.6482 9.00005 10L9.82005 9.09C10.3563 9.6119 11.0719 9.90887 11.8201 9.92C12.2355 9.96919 12.6547 9.86617 13.0001 9.63C13.1357 9.52908 13.2435 9.39544 13.3134 9.24154C13.3834 9.08765 13.4132 8.91853 13.4001 8.75C13.4093 8.54853 13.3644 8.34827 13.2701 8.17C13.1459 7.99367 12.9813 7.84965 12.7901 7.75C12.4694 7.5948 12.1345 7.47089 11.7901 7.38C11.0988 7.20074 10.4608 6.85775 9.93005 6.38C9.55803 6.01565 9.34278 5.52057 9.33005 5C9.32201 4.72577 9.37222 4.45296 9.47737 4.19957C9.58252 3.94617 9.74022 3.71796 9.94005 3.53C10.35 3.14629 10.8723 2.9044 11.4301 2.84V2H13.4301V2.93C13.5647 2.97112 13.6953 3.02469 13.8201 3.09C14.15 3.25352 14.4535 3.46592 14.7201 3.72L13.9401 4.61C13.6947 4.38364 13.41 4.20402 13.1001 4.08C12.8014 3.96039 12.4817 3.90256 12.1601 3.91C11.8425 3.89518 11.5281 3.97902 11.2601 4.15C11.1484 4.23033 11.0587 4.33746 10.9993 4.46153C10.9399 4.58561 10.9126 4.72263 10.9201 4.86C10.9118 5.03599 10.9571 5.21034 11.0501 5.36C11.1814 5.52324 11.3493 5.65339 11.5401 5.74C11.8654 5.88672 12.1994 6.01361 12.5401 6.12C13.1983 6.29343 13.8097 6.6111 14.3301 7.05C14.5495 7.25551 14.7227 7.50534 14.8383 7.78292C14.9538 8.0605 15.0089 8.35947 15.0001 8.66V8.66Z" fill="#0F1621"/>
</svg>

<svg xmlns="http://www.w3.org/2000/svg" width="24" height="24" viewBox="0 0 24 24"><rect width="24" height="24" style="fill:none"/><path d="M22,11H19.45l-.86-1.18A2.06,2.06,0,0,0,17,9v2.05l2.29,3.13.71,1V20H18V18H6v2H4V15.16l.71-1L7,11.05V9a2.06,2.06,0,0,0-1.59.82L4.55,11H2v2H3.1l-.77,1.06a1.64,1.64,0,0,0-.33,1V20a2,2,0,0,0,2,2H7a1,1,0,0,0,1-1V20h8v1a1,1,0,0,0,1,1h3a2,2,0,0,0,2-2V15.06a1.64,1.64,0,0,0-.33-1L20.9,13H22Zm-4,5H6l1.5-2h9ZM15,8.66a2.26,2.26,0,0,1-.57,1.57,2.63,2.63,0,0,1-1,.63V12h-2v-.89A3.85,3.85,0,0,1,9,10l.82-.91a2.93,2.93,0,0,0,2,.83A1.73,1.73,0,0,0,13,9.63a1,1,0,0,0,.4-.88,1.13,1.13,0,0,0-.13-.58,1.35,1.35,0,0,0-.48-.42,5.54,5.54,0,0,0-1-.37,4.45,4.45,0,0,1-1.86-1A2,2,0,0,1,9.33,5a1.94,1.94,0,0,1,.61-1.47,2.62,2.62,0,0,1,1.49-.69V2h2v.93a2.27,2.27,0,0,1,.39.16,3.66,3.66,0,0,1,.9.63l-.78.89a2.74,2.74,0,0,0-.84-.53,2.38,2.38,0,0,0-.94-.17,1.54,1.54,0,0,0-.9.24.82.82,0,0,0-.34.71.87.87,0,0,0,.13.5,1.34,1.34,0,0,0,.49.38,8.85,8.85,0,0,0,1,.38,4.59,4.59,0,0,1,1.79.93A2.12,2.12,0,0,1,15,8.66Z"/></svg>
